X: 3420
T: O'ER THE HILLS AND FAR AWA'
%R: march
B: James Kerr "Merry Melodies" v.3 p.47 #420
Z: 2016 John Chambers <jc:trillian.mit.edu>
M: 2/4
L: 1/16
K: D
A2 |\
d3e defe | d2B2B2 (AB) | d3e defd | f2e2e2 (AB) |\
d2(de) defe | d2B2g2B2 | A2(AB) ABde | f2e2e2 :|
|: (fg) |\
a2b agfe | d2B2B2 (fg) | a3b afde | f2e2e2 (fg) |\
a^gab a=gfe | d2B2g2B2 | A2(AB) ABde | f2e2e2 :|

%%sep 1 1 500
%%sep 1 1 500

